X:308
T:Unfortunate Rake, The  
B:CRE 2.033 (RÃÂÃÂÃÂÃÂ©ice an MhÃÂÃÂÃÂÃÂ­-ÃÂÃÂÃÂÃÂ¡dha)
F:file ID: cre.2/308unf_r
Q:160
L:1/8
M:6/8
R:jig
K:Em
z3|d/c/|BEE dEE|BAG FEF|DED FDF|AB^c ded|
"5"BEE dEE|dfa gfe|1 fed efa|bee e2:|\
[2 "7a"fdB dAG|"8a"FEE E2||
|:d|"9"ef/g/e fdB|ef/g/e fdB|de/f/e dAF|DFA def|
"13"eAB def|gba gfe|1 fed efa|bee e2:|\
[2 "15a"fdB dAG|"16a"FEE E2||
D|:"17"gfe fed|ef/g/e dAG|FDD ADD|BAG FED|
[1 "21"gfe fed|ef/g/e deg|fed efa|bee e2f:|
[2 "21a"fB^c def|gba gfe|fdB dAG|FEE E2||
D|:"25"B^c/d/B cd/e/c|dfe dAG|FDD ADD|BAG FED|
[1 "29"B^c/d/B cd/e/c|dfa gfe|fed efa|bee e2d:|
[2 "29a"fB^c def|gba gfe|fdB dAG|FEE HE3|]

%%%

